X: 1
T:The Cat Pie
M:3/4
L:1/8
C:Tommy Armstrong
K:D
|A|FEF DFA| BcB ABc |dcd Bed|
cBc dcd|eee ecA |dcd A2 A|
dcd dAF|GAG G3 |ABA AFD|
GAB A3| dcd Bed| cBc d2|
